**kern	**kern	**dynam	**kern	**kern
*part4	*part3	*part3	*part2	*part1
*staff4	*staff3	*	*staff2	*staff1
*I"Cello	*I"Viola	*	*I"Violin II	*I"Violin I
*I'Vc.	*I'Vla.	*	*I'Vln. II	*I'Vln. I
*clefF4	*clefC3	*	*clefG2	*clefG2
*k[b-e-]	*k[b-e-]	*	*k[b-e-]	*k[b-e-]
*B-:	*B-:	*	*B-:	*B-:
*M2/4	*M2/4	*	*M2/4	*M2/4
=1	=1	=1	=1	=1
!	!	!	!	!LO:TX:a:t=Presto
8B-L	8b-L	.	4.dd	4.ff
8B-	8b-	.	.	.
8B-	8b-	.	.	.
8B-J	8b-J	.	(>24ee-LL	(>24ggLL
.	.	.	24dd'	24ff
.	.	.	24ccJJ)	24ee-JJ)
=2	=2	=2	=2	=2
8B-L	8b-L	.	4.b-	4.dd
8B-	8b-	.	.	.
8B-	8b-	.	.	.
8B-J	8b-J	.	(<24gLL	(>24ee-LL
.	.	.	24f	24dd
.	.	.	24e-JJ)	24ccJJ)
=3	=3	=3	=3	=3
4B-	4b-	.	8d'L	8b-'L
.	.	.	8c'	8a'
4r	4r	.	8d'	8b-'
.	.	.	8e-'J	8cc'J
=4	=4	=4	=4	=4
4B-	4b-	.	8f'L	8dd'L
.	.	.	8g'	8ee-'
4r	4r	.	8f'	8dd'
.	.	.	8e-'J	8cc'J
=5	=5	=5	=5	=5
4B-	4b-	.	8d'L	8b-'L
.	.	.	8f'	8a'
4r	4r	.	8e-'	8g'
.	.	.	8d'J	8f'J
=6	=6	=6	=6	=6
8FL	8fL	.	8cL	8e-ML
8B-J	8b-J	.	8B-J	8dJ
4r	4r	.	4r	4r
=7	=7	=7	=7	=7
!!linebreak:original
8B-L	4.f	.	4.dd	2r
8B-	.	.	.	.
8B-	.	.	.	.
8B-J	(>24gLL	.	(>24ee-LL	.
.	24f	.	24dd	.
.	24e-JJ)	.	24ccJJ)	.
=8	=8	=8	=8	=8
4BB-	4d	.	4b-	(>16b-LL
.	.	.	.	16dd)
.	.	.	.	(>16ff
.	.	.	.	16bb-JJ)
4r	4r	.	4r	(>16dddLL
.	.	.	.	16bb-)
.	.	.	.	(>16aa
.	.	.	.	16bb-JJ)
=9	=9	=9	=9	=9
8FL	4.a	.	4.cc	4ccc
8F	.	.	.	.
8F	.	.	.	4r
8FJ	(>24b-LL	.	(>24ddLL	.
.	24a	.	24cc	.
.	24gJJ)	.	24b-JJ)	.
=10	=10	=10	=10	=10
4FF	4f	.	4a	(>16aLL
.	.	.	.	16cc)
.	.	.	.	(>16ff
.	.	.	.	16aaJJ)
4r	4r	.	4r	(>16cccLL
.	.	.	.	16aa)
.	.	.	.	(>16gg
.	.	.	.	16aaJJ)
=11	=11	=11	=11	=11
8CL	4.g	.	4.b-	4bb-
8C	.	.	.	.
8C	.	.	.	4r
8CJ	(>24aLL	.	(>24ccLL	.
.	24g	.	24b-	.
.	24fJJ	.	24aJJ)	.
=12	=12	=12	=12	=12
4CC	4en)	.	4g	(>16gLL
.	.	.	.	16b-)
.	.	.	.	(>16een
.	.	.	.	16ggJJ)
4r	4r	.	4r	(>16cccLL
.	.	.	.	16gg)
.	.	.	.	(>16ff
.	.	.	.	16ggJJ)
=13	=13	=13	=13	=13
!!linebreak:original
8FL	8fL	.	8f	16aa'LL
.	.	.	.	(>16ff
8F	8a	.	8r	16een
.	.	.	.	16ffJJ)
8G	8g	.	8f	16bb-'LL
.	.	.	.	(>16ff
8GJ	8b-J	.	8r	16ee
.	.	.	.	16ffJJ)
=14	=14	=14	=14	=14
8AL	8aL	.	8f	16ccc'LL
.	.	.	.	(>16ff
8A	8cc	.	8r	16een
.	.	.	.	16ffJJ)
8B-	8b-	.	8f	16dd'LL
.	.	.	.	(>16ff
8B-J	8ddJ	.	8r	16ee
.	.	.	.	16ffJJ)
=15	=15	=15	=15	=15
8AL	8aL	.	8f	16cc'LL
.	.	.	.	(>16ff
8A	8cc	.	8r	16een
.	.	.	.	16ffJJ)
8B-	8b-	.	8f	16dd'LL
.	.	.	.	(>16ff
8B-J	8ddJ	.	8r	16ee
.	.	.	.	16ffJJ)
=16	=16	=16	=16	=16
*	*	*	*	*^
8AL	8aL	.	8f	(>16ccLL	4ryy
.	.	.	.	16bb-	.
8B-	8b-	.	4ff	16aa	.
.	.	.	.	16ggJJ)	.
8c	8cc	.	.	4ggT	36...ggyy
.	.	.	.	.	32aaLLLyy
.	.	.	.	.	32ggyy
.	.	.	.	.	32aayy
8CJ	8cJ	.	8een	.	.
.	.	.	.	.	32ggyy
.	.	.	.	.	32aayy
.	.	.	.	.	32ggJJJyy
.	.	.	.	.	96ryy
*	*	*	*	*v	*v
=17	=17	=17	=17	=17
8FL	4f	.	4ff	4ff
8CJ	.	.	.	.
4FF	4r	.	4r	4r
=18	=18	=18	=18	=18
2r	4.a	.	4.cc	2r
.	(>24ddLL	.	(>24ffLL	.
.	24cc	.	24een	.
.	24b-JJ)	.	24ddJJ)	.
=19	=19	=19	=19	=19
!!linebreak:original
8r	4a	.	4cc	8r
8AL	.	.	.	8ffL
8A	4r	.	4r	8ff
8AJ	.	.	.	8ffJ
=20	=20	=20	=20	=20
8B-L	2r	.	2r	(>24eenLL
.	.	.	.	24ff
.	.	.	.	24ggJ)
8A	.	.	.	8ffJ
8G	.	.	.	8ggL
8FJ	.	.	.	8aaJ
=21	=21	=21	=21	=21
8EnL	2r	.	2r	(>24ggLL
.	.	.	.	24aa
.	.	.	.	24bb-J)
8FJ	.	.	.	8aaJ
4r	.	.	.	4r
=22	=22	=22	=22	=22
2r	4.a	.	4.cc	2r
.	(>24ddLL	p	(>24ffLL	.
.	24cc	.	24een	.
.	24b-JJ)	.	24ddJJ)	.
=23	=23	=23	=23	=23
8r	4a	.	4cc	8r
8AL	.	.	.	8ccL
8A	4r	.	4r	8cc
8AJ	.	.	.	8ccJ
=24	=24	=24	=24	=24
8B-L	8b-L	.	8ddL	(>24ddLL
.	.	.	.	24een
.	.	.	.	24ffJJ)
8F	8f	.	8a'	8a
8G	8g	.	8b-'	(>24b-LL
.	.	.	.	24cc
.	.	.	.	24ddJJ)
8EnJ	8cJ	.	8g'J	8g
=25	=25	=25	=25	=25
*	*	*	*	*^
!!linebreak:original
8FL	8cL	.	8a	(>24aLL	4ryy
.	.	.	.	24b-	.
.	.	.	.	24ccJJ)	.
8d	8d	.	4f	8f	.
8B-	8B-	.	.	4gT	36...gyy
.	.	.	.	.	32aLLLyy
.	.	.	.	.	32gyy
.	.	.	.	.	32ayy
8cJ	8cJ	.	8en	.	.
.	.	.	.	.	32gyy
.	.	.	.	.	32ayy
.	.	.	.	.	32gJJJyy
.	.	.	.	.	96ryy
*	*	*	*	*v	*v
=26	=26	=26	=26	=26
4F	4f	.	4f	(<16fLL
.	.	.	.	16c)
.	.	.	.	(<16A
.	.	.	.	16cJJ)
4FF	4F	.	4f 4a	(<16fLL
.	.	.	.	16c)
.	.	.	.	(<16A
.	.	.	.	16cJJ)
=27	=27	=27	=27	=27
4FF	4F	.	4f 4a	4f
4r	4r	.	4r	4r
=28:|!|:	=28:|!|:	=28:|!|:	=28:|!|:	=28:|!|:
8FL	4.a	.	4.cc	2r
8F	.	.	.	.
8F	.	.	.	.
8FJ	(>24b-LL	.	(>24ddLL	.
.	24a	.	24cc	.
.	24gJJ	.	24b-JJ)	.
=29	=29	=29	=29	=29
8FL	8f'L)	.	8a'L	2r
8F	8g'	.	8b-'	.
8F	8a'	.	8cc'	.
8FJ	8b-'J	.	8dd'J	.
=30	=30	=30	=30	=30
8FL	(8ccL	.	(>8ee-L	2aa
8F	8aJ)	.	8cc)	.
8F	(8ccL	.	(>8ee-	.
8FJ	8aJ)	.	8ccJ)	.
=31	=31	=31	=31	=31
!!linebreak:original
4F	(>8ccL	.	(>8ee-L	(>16aaLL
.	.	.	.	16bb-)
.	8aJ)	.	8ccJ)	(>16aa
.	.	.	.	16bb-JJ)
4r	4r	.	4r	(>16cccLL
.	.	.	.	16aa)
.	.	.	.	(>16ff
.	.	.	.	16ee-JJ)
=32	=32	=32	=32	=32
8FL	4.b-	.	4.dd	4dd
8F	.	.	.	.
8F	.	.	.	4r
8FJ	(24ccLL	.	(>24ee-LL	.
.	24b-	.	24dd	.
.	24aJJ)	.	24ccJJ)	.
=33	=33	=33	=33	=33
8FL	8b-'L	.	8b-'L	2r
8F	8a'	.	8cc'	.
8F	8b-'	.	8dd'	.
8FJ	8cc'J	.	8ee-'J	.
=34	=34	=34	=34	=34
8FL	(>8ddL	.	(8ffL	2bb-
8F	8b-	.	8ddJ)	.
8F	8dd)	.	(8ffL	.
8FJ	8b-J)	.	8ddJ)	.
=35	=35	=35	=35	=35
4F	(>8ddL	.	(8ffL	(>16bb-LL
.	.	.	.	16aa)
.	8b-J)	.	8ddJ)	(>16bb-
.	.	.	.	16cccJJ)
4r	4r	.	4r	16ddd'LL
.	.	.	.	(16ff
.	.	.	.	16ee-
.	.	.	.	16ddJJ)
=36	=36	=36	=36	=36
8FL	4.cc	.	(>4.ee-	4ee-
8F	.	.	.	.
8F	.	.	.	4r
8FJ	(>24ddLL	.	24ffLL	.
.	24cc	.	24ee-	.
.	24b-JJ)	.	24ddJJ	.
=37	=37	=37	=37	=37
!!linebreak:original
4F	4a	.	4cc)	16f'LL
.	.	.	.	(>16ee-
.	.	.	.	16dd
.	.	.	.	16ee-JJ)
4r	4r	.	4r	16ccc'LL
.	.	.	.	(>16ee-
.	.	.	.	16dd
.	.	.	.	16ccJJ)
=38	=38	=38	=38	=38
8FL	4.f	.	4.dd	4dd
8F	.	.	.	.
8F	.	.	.	4r
8FJ	(>24gLL	.	(>24ee-LL	.
.	24f	.	24dd	.
.	24e-JJ	.	24ccJJ)	.
=39	=39	=39	=39	=39
4F	4d)	.	4b-	16f'LL
.	.	.	.	(>16dd
.	.	.	.	16cc
.	.	.	.	16ddJJ)
4r	4r	.	4r	16bb-'LL
.	.	.	.	(>16dd
.	.	.	.	16cc
.	.	.	.	16b-JJ)
=40	=40	=40	=40	=40
8FL	8fL	.	(<16fLL	(>16aLL
.	.	.	16g	16b-
8FJ	8f	.	16a	16cc
.	.	.	16b-JJ)	16ddJJ)
8FL	8f	.	4cc	(>16ee-LL
.	.	.	.	16cc)
8FJ	8fJ	.	.	(>16dd
.	.	.	.	16b-JJ)
=41	=41	=41	=41	=41
4FF	4F	.	4a	4cc
4r	4r	.	4r	4r
=42	=42	=42	=42	=42
8B-L	8b-L	.	4.dd	4.ff
8B-J	8b-	.	.	.
8B-L	8b-	.	.	.
8B-J	8b-J	.	(>24ee-LL	(>24ggLL
.	.	.	24dd	24ff
.	.	.	24ccJJ)	24ee-JJ)
=43	=43	=43	=43	=43
*^	*^	*	*	*
!!linebreak:original
2B-	8B-Lyy	2b-	8b-Lyy	.	4.b-	4.dd
.	8B-yy	.	8b-yy	.	.	.
.	8B-yy	.	8b-yy	.	.	.
.	8B-Jyy	.	8b-Jyy	.	(<24gLL	(>24ee-LL
.	.	.	.	.	24f	24dd
.	.	.	.	.	24e-JJ)	24ccJJ)
*v	*v	*	*	*	*	*
*	*v	*v	*	*	*
=44	=44	=44	=44	=44
4B-	4b-	.	8d'L	8b-'L
.	.	.	8c'	8a'
4r	4r	.	8d'	8b-'
.	.	.	8e-'J	8cc'J
=45	=45	=45	=45	=45
4B-	4b-	.	8fL	8dd'L
.	.	.	8g	8ee-'
4r	4r	.	8f	8dd'
.	.	.	8e-J	8cc'J
=46	=46	=46	=46	=46
4B-	4b-	.	8d'L	8b-'L
.	.	.	8f'	8a'
4r	4r	.	8e-'	8g'
.	.	.	8d'J	8f'J
=47	=47	=47	=47	=47
8FL	8fL	.	8cL	8e-ML
8B-J	8b-J	.	8B-J	8dJ
4r	4r	.	4r	4r
=48	=48	=48	=48	=48
*^	*	*	*	*
2BB-	8BB-Lyy	4.ee-	.	4.gg	2r
.	8BB-yy	.	.	.	.
.	8BB-yy	.	.	.	.
.	8BB-Jyy	(>24ffLL	.	(>24aa-XLL	.
.	.	24ee-	.	24gg	.
.	.	24ddJJ)	.	24ffJJ)	.
*v	*v	*	*	*	*
=49	=49	=49	=49	=49
!!linebreak:original
4BB-	4ee-	.	4gg	(<16e-LL
.	.	.	.	16g
.	.	.	.	16b-)
.	.	.	.	16ee-JJ
4r	4r	.	4r	16gg'LL
.	.	.	.	(>16ee-
.	.	.	.	16dd
.	.	.	.	16ee-JJ)
=50	=50	=50	=50	=50
*^	*	*	*	*
2BB-	8BB-Lyy	4.dd	.	4.ff	4ff
.	8BB-yy	.	.	.	.
.	8BB-yy	.	.	.	4r
.	8BB-Jyy	(>24ee-LL	.	(>24ggLL	.
.	.	24dd	.	24ff	.
.	.	24ccJJ)	.	24ee-JJ)	.
*v	*v	*	*	*	*
=51	=51	=51	=51	=51
4BB-	4b-	.	4dd	(>16b-LL
.	.	.	.	16dd
.	.	.	.	16ff
.	.	.	.	16bb-JJ)
4r	4r	.	4r	16dddLL
.	.	.	.	(>16bb-
.	.	.	.	16ff
.	.	.	.	16ddJJ)
=52	=52	=52	=52	=52
*^	*	*	*	*
2F	8FLyy	4.cc	.	4.ee-	4ee-
.	8Fyy	.	.	.	.
.	8Fyy	.	.	.	4r
.	8FJyy	(>24ddLL	.	(>24ffLL	.
.	.	24cc	.	24ee-	.
.	.	24b-JJ)	.	24ddJJ)	.
*v	*v	*	*	*	*
=53	=53	=53	=53	=53
4FF	4a	.	4cc	(<16ALL
.	.	.	.	16c)
.	.	.	.	(<16f
.	.	.	.	16aJJ)
4r	4r	.	4r	16cc'LL
.	.	.	.	(>16ee-
.	.	.	.	16dd
.	.	.	.	16ccJJ)
=54	=54	=54	=54	=54
8BB-L	8B-L	.	8B-	16dd'LL
.	.	.	.	(>16b-
8BB-	8d	.	8r	16a
.	.	.	.	16b-JJ)
8C	8c	.	8B-	16ee-'LL
.	.	.	.	(>16b-
8CJ	8e-J	.	8r	16a
.	.	.	.	16b-JJ)
=55	=55	=55	=55	=55
!!linebreak:original
8DL	8dL	.	8B-	16ff'LL
.	.	.	.	(>16b-
8D	8f	.	8r	16a
.	.	.	.	16b-JJ)
8E-	8e-	.	8B-	16gg'LL
.	.	.	.	(>16b-
8E-J	8gJ	.	8r	16a
.	.	.	.	16b-JJ)
=56	=56	=56	=56	=56
8DL	8dL	.	8B-	16ff'LL
.	.	.	.	(>16b-
8D	8f	.	8r	16a
.	.	.	.	16b-JJ)
8E-	8e-	.	8B-	16gg'LL
.	.	.	.	(>16b-
8E-J	8gJ	.	8r	16a
.	.	.	.	16b-JJ)
=57	=57	=57	=57	=57
*	*	*	*	*^
8DL	8dL	.	8B-	(>16ffLL	8.ryy
.	.	.	.	16dd	.
8E-J	8e-J	.	4b-	16cc	.
.	.	.	.	16b-TJJ)	24b-yy
.	.	.	.	.	48ryy
8FL	8fL	.	.	4cc	4ryy
8FFJ	8FJ	.	8a	.	.
*	*	*	*	*v	*v
=58	=58	=58	=58	=58
8BB-L	4B-	.	4b-	4b-
8FFJ	.	.	.	.
4BB-	4r	.	4r	4r
=59	=59	=59	=59	=59
2r	4.d	.	4.f	2r
.	(>24gLL	.	(<24b-LL	.
.	24f	.	24a	.
.	24e-JJ	.	24gJJ)	.
=60	=60	=60	=60	=60
8r	4d)	.	4f	8r
8DL	.	.	.	8b-L
8D	4r	.	4r	8b-
8DJ	.	.	.	8b-J
=61	=61	=61	=61	=61
!!linebreak:original
8E-L	2r	.	2r	(>24aLL
.	.	.	.	24b-
.	.	.	.	24ccJ)
8D	.	.	.	8b-J
8C	.	.	.	8ccL
8BB-J	.	.	.	8ddJ
=62	=62	=62	=62	=62
8AAL	2r	.	2r	(>24ccLL
.	.	.	.	24dd
.	.	.	.	24ee-J)
8BB-J	.	.	.	8ddJ
4r	.	.	.	4r
=63	=63	=63	=63	=63
2r	4.d	.	4.f	2r
.	(24gLL	.	(<24b-LL	.
.	24f	.	24a	.
.	24e-JJ)	.	24gJJ)	.
=64	=64	=64	=64	=64
8r	4d	.	4f	8r
8dL	.	.	.	8ffL
8d	4r	.	4r	8ff
8dJ	.	.	.	8ffJ
=65	=65	=65	=65	=65
8e-L	8ee-L	.	8gg'L	(>24ggLL
.	.	.	.	24aa
.	.	.	.	24bb-JJ)
8B-	8b-	.	8dd'J	8dd
8c	8cc	.	8ee-'L	(>24ee-LL
.	.	.	.	24ff
.	.	.	.	24ggJJ)
8AJ	8fJ	.	8cc'J	8cc
=66	=66	=66	=66	=66
*	*	*	*	*^
8B-L	8fL	.	8dd	(>24ddLL	4ryy
.	.	.	.	24ee-	.
.	.	.	.	24ffJJ)	.
8G	8g	.	4b-	8b-	.
8E-	8e-	.	.	4ccT	36...ccyy
.	.	.	.	.	32ddLLLyy
.	.	.	.	.	32ccyy
.	.	.	.	.	32ddyy
8FJ	8fJ	.	8a	.	.
.	.	.	.	.	32ccyy
.	.	.	.	.	32ddyy
.	.	.	.	.	32ccJJJyy
.	.	.	.	.	96ryy
*	*	*	*	*v	*v
=67	=67	=67	=67	=67
!!linebreak:original
4BB-	4B-	.	4b-	(<16b-LL
.	.	.	.	16f)
.	.	.	.	(<16d
.	.	.	.	16fJJ)
4BB-	4B-	.	4d 4b-	(<16b-LL
.	.	.	.	16f)
.	.	.	.	(<16d
.	.	.	.	16fJJ)
=68	=68	=68	=68	=68
4BB-	4B-	.	4d 4b-	4b-
4BB-	4r	.	4r	4r
=:|!	=:|!	=:|!	=:|!	=:|!
*-	*-	*-	*-	*-
!!!system-decoration: [(s1,s2,s3,s4)]
!!!RDF**kern: > = above
!!!RDF**kern: < = below
